dist/icons/svgs/microphone-outline.svg

<svg xmlns="http://www.w3.org/2000/svg" width="24" height="24" fill="currentcolor" class="icon-microphone-outline" viewBox="0 0 24 24">
  <path d="M14.375 5.75C14.375 4.73438 13.5156 3.875 12.5 3.875C11.4453 3.875 10.625 4.73438 10.625 5.75V12C10.625 13.0547 11.4453 13.875 12.5 13.875C13.5156 13.875 14.375 13.0547 14.375 12V5.75ZM8.75 5.75C8.75 3.67969 10.4297 2 12.5 2C14.5703 2 16.25 3.67969 16.25 5.75V12C16.25 14.0703 14.5703 15.75 12.5 15.75C10.4297 15.75 8.75 14.0703 8.75 12V5.75ZM7.5 10.4375V12C7.5 14.7734 9.72656 17 12.5 17C15.2344 17 17.5 14.7734 17.5 12V10.4375C17.5 9.92969 17.8906 9.5 18.4375 9.5C18.9453 9.5 19.375 9.92969 19.375 10.4375V12C19.375 15.5156 16.7578 18.3672 13.4375 18.8359V20.125H15.3125C15.8203 20.125 16.25 20.5547 16.25 21.0625C16.25 21.6094 15.8203 22 15.3125 22H12.5H9.6875C9.14062 22 8.75 21.6094 8.75 21.0625C8.75 20.5547 9.14062 20.125 9.6875 20.125H11.5625V18.8359C8.20312 18.3672 5.625 15.5156 5.625 12V10.4375C5.625 9.92969 6.01562 9.5 6.5625 9.5C7.07031 9.5 7.5 9.92969 7.5 10.4375Z"/>
</svg>

<svg xmlns="http://www.w3.org/2000/svg" width="24" height="24" fill="currentColor" class="icon-microphone-outline" viewBox="0 0 24 24">
  <path d="M14.375 5.75c0-1.016-.86-1.875-1.875-1.875-1.055 0-1.875.86-1.875 1.875V12a1.85 1.85 0 0 0 1.875 1.875c1.016 0 1.875-.82 1.875-1.875zm-5.625 0a3.751 3.751 0 0 1 7.5 0V12a3.751 3.751 0 0 1-7.5 0zM7.5 10.438V12c0 2.773 2.227 5 5 5 2.734 0 5-2.227 5-5v-1.562c0-.508.39-.938.938-.938a.95.95 0 0 1 .937.938V12c0 3.516-2.617 6.367-5.937 6.836v1.289h1.874a.95.95 0 0 1 .938.938c0 .546-.43.937-.937.937H9.688c-.547 0-.938-.39-.938-.937 0-.508.39-.938.938-.938h1.874v-1.29A6.88 6.88 0 0 1 5.626 12v-1.562c0-.508.39-.938.938-.938a.95.95 0 0 1 .937.938"/>
</svg>
